welcome-home/luts/olsm_warm.cube
TITLE "OLSM Warm v4 (session grade: colortemp4600 + eq + colorbalance)"
LUT_3D_SIZE 4
0.000000 0.000000 0.027451
0.274510 0.000000 0.019608
0.670588 0.000000 0.000000
1.000000 0.000000 0.000000
0.000000 0.250980 0.023529
0.286275 0.250980 0.019608
0.662745 0.250980 0.000000
1.000000 0.254902 0.000000
0.007843 0.572549 0.000000
0.294118 0.580392 0.000000
0.670588 0.580392 0.000000
1.000000 0.580392 0.000000
0.070588 0.886275 0.000000
0.360784 0.894118 0.000000
0.721569 0.898039 0.000000
1.000000 0.898039 0.000000
0.000000 0.000000 0.231373
0.278431 0.000000 0.219608
0.662745 0.000000 0.184314
1.000000 0.000000 0.149020
0.000000 0.247059 0.219608
0.274510 0.250980 0.196078
0.705882 0.250980 0.149020
1.000000 0.258824 0.152941
0.007843 0.572549 0.203922
0.356863 0.576471 0.156863
0.713725 0.580392 0.160784
1.000000 0.580392 0.160784
0.070588 0.894118 0.152941
0.360784 0.890196 0.160784
0.725490 0.898039 0.164706
1.000000 0.898039 0.164706
0.000000 0.000000 0.494118
0.278431 0.000000 0.482353
0.666667 0.000000 0.474510
1.000000 0.000000 0.439216
0.000000 0.247059 0.494118
0.341176 0.250980 0.447059
0.713725 0.254902 0.447059
1.000000 0.250980 0.439216
0.007843 0.572549 0.490196
0.349020 0.576471 0.439216
0.709804 0.580392 0.447059
1.000000 0.588235 0.450980
0.070588 0.894118 0.443137
0.360784 0.898039 0.450980
0.713725 0.898039 0.443137
1.000000 0.901961 0.454902
0.062745 0.000000 0.721569
0.349020 0.000000 0.725490
0.709804 0.000000 0.725490
1.000000 0.000000 0.717647
0.062745 0.250980 0.721569
0.352941 0.258824 0.729412
0.713725 0.254902 0.721569
1.000000 0.254902 0.729412
0.062745 0.576471 0.721569
0.356863 0.580392 0.729412
0.721569 0.580392 0.729412
1.000000 0.580392 0.729412
0.070588 0.890196 0.733333
0.360784 0.898039 0.737255
0.721569 0.898039 0.741176
1.000000 0.905882 0.745098
