welcome-home/luts/olsm_warm.cube
TITLE "OLSM Warm v4 (session grade: colortemp4600 + eq + colorbalance)"
LUT_3D_SIZE 64
0.000000 0.000000 0.027451
0.000000 0.000000 0.027451
0.000000 0.000000 0.027451
0.000000 0.000000 0.027451
0.000000 0.000000 0.027451
0.000000 0.000000 0.027451
0.023529 0.000000 0.027451
0.035294 0.000000 0.027451
0.050980 0.000000 0.027451
0.066667 0.000000 0.027451
0.086275 0.000000 0.027451
0.098039 0.000000 0.027451
0.113725 0.000000 0.027451
0.137255 0.000000 0.027451
0.152941 0.000000 0.027451
0.164706 0.000000 0.027451
0.180392 0.000000 0.027451
0.203922 0.000000 0.027451
0.219608 0.000000 0.027451
0.235294 0.000000 0.023529
0.258824 0.000000 0.023529
0.274510 0.000000 0.019608
0.294118 0.000000 0.019608
0.309804 0.000000 0.015686
0.325490 0.000000 0.015686
0.337255 0.000000 0.011765
0.356863 0.000000 0.011765
0.384314 0.000000 0.007843
0.400000 0.000000 0.007843
0.411765 0.000000 0.003922
0.427451 0.000000 0.003922
0.447059 0.000000 0.000000
0.462745 0.000000 0.000000
0.474510 0.000000 0.000000
0.498039 0.000000 0.000000
0.513725 0.000000 0.000000
0.529412 0.000000 0.000000
0.541176 0.000000 0.000000
0.572549 0.000000 0.000000
0.592157 0.000000 0.000000
0.611765 0.000000 0.000000
0.627451 0.000000 0.000000
0.670588 0.000000 0.000000
0.686275 0.000000 0.000000
0.705882 0.000000 0.000000
0.725490 0.000000 0.000000
0.752941 0.000000 0.000000
0.772549 0.000000 0.000000
0.796078 0.000000 0.000000
0.823529 0.000000 0.000000
0.843137 0.000000 0.000000
0.858824 0.000000 0.000000
0.874510 0.000000 0.000000
0.894118 0.000000 0.000000
0.909804 0.000000 0.000000
0.933333 0.000000 0.000000
0.945098 0.000000 0.000000
0.964706 0.000000 0.000000
0.984314 0.000000 0.000000
1.000000 0.000000 0.000000
1.000000 0.000000 0.000000
1.000000 0.000000 0.000000
1.000000 0.000000 0.000000
1.000000 0.000000 0.000000
0.000000 0.000000 0.027451
0.000000 0.000000 0.027451
0.000000 0.000000 0.027451
0.000000 0.000000 0.027451
0.000000 0.000000 0.027451
0.003922 0.000000 0.027451
0.011765 0.000000 0.027451
0.035294 0.000000 0.027451
0.054902 0.000000 0.027451
0.070588 0.000000 0.027451
0.082353 0.000000 0.027451
0.098039 0.000000 0.027451
0.117647 0.000000 0.027451
0.133333 0.000000 0.027451
0.149020 0.000000 0.027451
0.172549 0.000000 0.027451
0.188235 0.000000 0.027451
0.207843 0.000000 0.027451
0.223529 0.000000 0.027451
0.235294 0.000000 0.023529
0.250980 0.000000 0.023529
0.274510 0.000000 0.019608
0.290196 0.000000 0.019608
0.309804 0.000000 0.015686
0.325490 0.000000 0.015686
0.337255 0.000000 0.011765
0.356863 0.000000 0.011765
0.380392 0.000000 0.007843
0.403922 0.000000 0.007843
0.415686 0.000000 0.003922
0.431373 0.000000 0.003922
0.447059 0.000000 0.000000
0.466667 0.000000 0.000000
0.474510 0.000000 0.000000
0.494118 0.000000 0.000000
0.517647 0.000000 0.000000
0.537255 0.000000 0.000000
0.552941 0.000000 0.000000
0.572549 0.000000 0.000000
0.596078 0.000000 0.000000
0.615686 0.000000 0.000000
0.631373 0.000000 0.000000
0.666667 0.000000 0.000000
0.682353 0.000000 0.000000
0.701961 0.000000 0.000000
0.725490 0.000000 0.000000
0.752941 0.000000 0.000000
0.768627 0.000000 0.000000
0.788235 0.000000 0.000000
0.815686 0.000000 0.000000
0.843137 0.000000 0.000000
0.858824 0.000000 0.000000
0.874510 0.000000 0.000000
0.890196 0.000000 0.000000
0.909804 0.000000 0.000000
0.929412 0.000000 0.000000
0.952941 0.000000 0.000000
0.968627 0.000000 0.000000
0.984314 0.000000 0.000000
0.996078 0.000000 0.000000
1.000000 0.000000 0.000000
1.000000 0.000000 0.000000
1.000000 0.000000 0.000000
1.000000 0.000000 0.000000
0.000000 0.000000 0.027451
0.000000 0.000000 0.027451
0.000000 0.000000 0.027451
0.000000 0.000000 0.027451
0.000000 0.000000 0.027451
0.000000 0.000000 0.027451
0.015686 0.000000 0.027451
0.039216 0.000000 0.027451
0.050980 0.000000 0.027451
0.066667 0.000000 0.027451
0.086275 0.000000 0.027451
0.101961 0.000000 0.027451
0.117647 0.000000 0.027451
0.133333 0.000000 0.027451
0.152941 0.000000 0.027451
0.176471 0.000000 0.027451
0.192157 0.000000 0.027451
0.203922 0.000000 0.027451
0.219608 0.000000 0.027451
0.235294 0.000000 0.023529
0.254902 0.000000 0.023529
0.278431 0.000000 0.019608
0.294118 0.000000 0.019608
0.305882 0.000000 0.015686
0.325490 0.000000 0.015686
0.345098 0.000000 0.011765
0.360784 0.000000 0.011765
0.376471 0.000000 0.007843
0.392157 0.000000 0.007843
0.415686 0.000000 0.003922
0.435294 0.000000 0.003922
0.443137 0.000000 0.000000
0.462745 0.000000 0.000000
0.478431 0.000000 0.000000
0.501961 0.000000 0.000000
0.509804 0.000000 0.000000
0.533333 0.000000 0.000000
0.556863 0.000000 0.000000
0.576471 0.000000 0.000000
0.592157 0.000000 0.000000
0.611765 0.000000 0.000000
0.635294 0.000000 0.000000
0.654902 0.000000 0.000000
0.686275 0.000000 0.000000
0.709804 0.000000 0.000000
0.725490 0.000000 0.000000
0.745098 0.000000 0.000000
0.772549 0.000000 0.000000
0.792157 0.000000 0.000000
0.807843 0.000000 0.000000
0.835294 0.000000 0.000000
0.858824 0.000000 0.000000
0.878431 0.000000 0.000000
0.886275 0.000000 0.000000
0.913725 0.000000 0.000000
0.929412 0.000000 0.000000
0.949020 0.000000 0.000000
0.964706 0.000000 0.000000
0.980392 0.000000 0.000000
1.000000 0.000000 0.000000
1.000000 0.000000 0.000000
1.000000 0.000000 0.000000
1.000000 0.000000 0.000000
1.000000 0.000000 0.000000
0.000000 0.000000 0.027451
0.000000 0.000000 0.027451
0.000000 0.000000 0.027451
0.000000 0.000000 0.027451
0.000000 0.000000 0.027451
0.000000 0.000000 0.027451
0.015686 0.000000 0.027451
0.031373 0.000000 0.027451
0.047059 0.000000 0.027451
0.066667 0.000000 0.027451
0.082353 0.000000 0.027451
0.101961 0.000000 0.027451
0.113725 0.000000 0.027451
0.133333 0.000000 0.027451
0.149020 0.000000 0.027451
0.172549 0.000000 0.027451
0.184314 0.000000 0.027451
0.203922 0.000000 0.027451
0.223529 0.000000 0.027451
0.239216 0.000000 0.023529
0.250980 0.000000 0.023529
0.274510 0.000000 0.019608
0.294118 0.000000 0.019608
0.313725 0.000000 0.015686
0.329412 0.000000 0.015686
0.345098 0.000000 0.011765
0.356863 0.000000 0.011765
0.376471 0.000000 0.007843
0.392157 0.000000 0.007843
0.415686 0.000000 0.003922
0.427451 0.000000 0.003922
0.443137 0.000000 0.000000
0.458824 0.000000 0.000000
0.482353 0.000000 0.000000
0.494118 0.000000 0.000000
0.509804 0.000000 0.000000
0.533333 0.000000 0.000000
0.552941 0.000000 0.000000
0.576471 0.000000 0.000000
0.584314 0.000000 0.000000
0.611765 0.000000 0.000000
0.631373 0.000000 0.000000
0.666667 0.000000 0.000000
0.698039 0.000000 0.000000
0.717647 0.000000 0.000000
0.733333 0.000000 0.000000
0.752941 0.000000 0.000000
0.776471 0.000000 0.000000
0.796078 0.000000 0.000000
0.811765 0.000000 0.000000
0.843137 0.000000 0.000000
0.862745 0.000000 0.000000
0.886275 0.000000 0.000000
0.894118 0.000000 0.000000
0.913725 0.000000 0.000000
0.929412 0.000000 0.000000
0.945098 0.000000 0.000000
0.956863 0.000000 0.000000
0.980392 0.000000 0.000000
0.996078 0.000000 0.000000
1.000000 0.000000 0.000000
1.000000 0.000000 0.000000
1.000000 0.000000 0.000000
1.000000 0.000000 0.000000
0.000000 0.000000 0.027451
0.000000 0.000000 0.027451
0.000000 0.000000 0.027451
0.000000 0.000000 0.027451
0.000000 0.000000 0.027451
0.000000 0.000000 0.027451
0.011765 0.000000 0.027451
0.027451 0.000000 0.027451
0.047059 0.000000 0.027451
0.070588 0.000000 0.027451
0.082353 0.000000 0.027451
0.101961 0.000000 0.027451
0.117647 0.000000 0.027451
0.137255 0.000000 0.027451
0.145098 0.000000 0.027451
0.164706 0.000000 0.027451
0.188235 0.000000 0.027451
0.207843 0.000000 0.027451
0.219608 0.000000 0.027451
0.235294 0.000000 0.023529
0.258824 0.000000 0.023529
0.274510 0.000000 0.019608
0.290196 0.000000 0.019608
0.313725 0.000000 0.015686
0.325490 0.000000 0.015686
0.345098 0.000000 0.011765
0.360784 0.000000 0.011765
0.376471 0.000000 0.007843
0.388235 0.000000 0.007843
0.403922 0.000000 0.007843
0.427451 0.000000 0.003922
0.450980 0.000000 0.000000
0.466667 0.000000 0.000000
0.478431 0.000000 0.000000
0.494118 0.000000 0.000000
0.513725 0.000000 0.000000
0.529412 0.000000 0.000000
0.545098 0.000000 0.000000
0.572549 0.000000 0.000000
0.592157 0.000000 0.000000
0.611765 0.000000 0.000000
0.631373 0.000000 0.000000
0.670588 0.000000 0.000000
0.682353 0.000000 0.000000
0.709804 0.000000 0.000000
0.737255 0.000000 0.000000
0.756863 0.000000 0.000000
0.772549 0.000000 0.000000
0.792157 0.000000 0.000000
0.811765 0.000000 0.000000
0.843137 0.000000 0.000000
0.862745 0.000000 0.000000
0.882353 0.000000 0.000000
0.898039 0.000000 0.000000
0.913725 0.000000 0.000000
0.925490 0.000000 0.000000
0.941176 0.000000 0.000000
0.960784 0.000000 0.000000
0.984314 0.000000 0.000000
0.996078 0.000000 0.000000
1.000000 0.000000 0.000000
1.000000 0.000000 0.000000
1.000000 0.000000 0.000000
1.000000 0.000000 0.000000
0.000000 0.003922 0.027451
0.000000 0.003922 0.027451
0.000000 0.003922 0.027451
0.000000 0.000000 0.027451
0.000000 0.000000 0.027451
0.003922 0.000000 0.027451
0.015686 0.000000 0.027451
0.031373 0.000000 0.027451
0.054902 0.003922 0.027451
0.074510 0.000000 0.027451
0.086275 0.003922 0.027451
0.105882 0.000000 0.027451
0.121569 0.000000 0.027451
0.137255 0.000000 0.027451
0.149020 0.003922 0.027451
0.164706 0.000000 0.027451
0.184314 0.000000 0.027451
0.207843 0.000000 0.027451
0.215686 0.000000 0.027451
0.239216 0.003922 0.023529
0.254902 0.003922 0.023529
0.274510 0.003922 0.019608
0.290196 0.000000 0.019608
0.313725 0.000000 0.015686
0.325490 0.000000 0.015686
0.345098 0.003922 0.011765
0.364706 0.003922 0.011765
0.380392 0.000000 0.007843
0.392157 0.003922 0.007843
0.411765 0.007843 0.003922
0.431373 0.007843 0.003922
0.454902 0.003922 0.000000
0.462745 0.003922 0.000000
0.482353 0.003922 0.000000
0.498039 0.003922 0.000000
0.513725 0.003922 0.000000
0.525490 0.003922 0.000000
0.545098 0.003922 0.000000
0.572549 0.000000 0.000000
0.600000 0.003922 0.000000
0.615686 0.007843 0.000000
0.635294 0.003922 0.000000
0.654902 0.003922 0.000000
0.682353 0.003922 0.000000
0.701961 0.003922 0.000000
0.733333 0.000000 0.000000
0.745098 0.003922 0.000000
0.768627 0.000000 0.000000
0.792157 0.000000 0.000000
0.815686 0.003922 0.000000
0.831373 0.007843 0.000000
0.850980 0.007843 0.000000
0.882353 0.003922 0.000000
0.901961 0.003922 0.000000
0.913725 0.007843 0.000000
0.929412 0.007843 0.000000
0.945098 0.003922 0.000000
0.964706 0.003922 0.000000
0.984314 0.007843 0.000000
1.000000 0.007843 0.000000
1.000000 0.007843 0.000000
1.000000 0.007843 0.000000
1.000000 0.007843 0.000000
1.000000 0.007843 0.000000
0.000000 0.019608 0.027451
0.000000 0.019608 0.027451
0.000000 0.019608 0.027451
0.000000 0.015686 0.027451
0.000000 0.015686 0.027451
0.000000 0.015686 0.027451
0.023529 0.019608 0.027451
0.039216 0.019608 0.027451
0.050980 0.023529 0.027451
0.066667 0.019608 0.027451
0.090196 0.015686 0.027451
0.105882 0.015686 0.027451
0.117647 0.019608 0.027451
0.133333 0.019608 0.027451
0.152941 0.015686 0.027451
0.168627 0.015686 0.027451
0.180392 0.019608 0.027451
0.200000 0.023529 0.027451
0.223529 0.019608 0.027451
0.243137 0.019608 0.023529
0.250980 0.019608 0.023529
0.274510 0.015686 0.019608
0.286275 0.019608 0.019608
0.305882 0.019608 0.015686
0.333333 0.019608 0.015686
0.349020 0.015686 0.011765
0.360784 0.019608 0.011765
0.380392 0.023529 0.007843
0.400000 0.023529 0.007843
0.415686 0.019608 0.003922
0.427451 0.023529 0.003922
0.443137 0.023529 0.000000
0.466667 0.019608 0.000000
0.482353 0.019608 0.000000
0.494118 0.019608 0.000000
0.513725 0.019608 0.000000
0.529412 0.019608 0.000000
0.552941 0.023529 0.000000
0.564706 0.027451 0.000000
0.596078 0.019608 0.000000
0.619608 0.019608 0.000000
0.643137 0.019608 0.000000
0.662745 0.019608 0.000000
0.686275 0.019608 0.000000
0.698039 0.023529 0.000000
0.721569 0.019608 0.000000
0.752941 0.015686 0.000000
0.776471 0.019608 0.000000
0.792157 0.023529 0.000000
0.811765 0.019608 0.000000
0.835294 0.019608 0.000000
0.858824 0.019608 0.000000
0.886275 0.019608 0.000000
0.898039 0.023529 0.000000
0.913725 0.019608 0.000000
0.933333 0.019608 0.000000
0.952941 0.023529 0.000000
0.964706 0.027451 0.000000
0.980392 0.027451 0.000000
1.000000 0.023529 0.000000
1.000000 0.023529 0.000000
1.000000 0.023529 0.000000
1.000000 0.023529 0.000000
1.000000 0.023529 0.000000
0.000000 0.031373 0.027451
0.000000 0.031373 0.027451
0.000000 0.027451 0.027451
0.000000 0.031373 0.027451
0.000000 0.027451 0.027451
0.003922 0.031373 0.027451
0.019608 0.031373 0.027451
0.031373 0.031373 0.027451
0.047059 0.031373 0.027451
0.066667 0.031373 0.027451
0.082353 0.031373 0.027451
0.098039 0.027451 0.027451
0.117647 0.027451 0.027451
0.133333 0.027451 0.027451
0.149020 0.023529 0.027451
0.176471 0.035294 0.027451
0.188235 0.035294 0.027451
0.203922 0.035294 0.027451
0.227451 0.035294 0.027451
0.243137 0.031373 0.023529
0.254902 0.035294 0.023529
0.278431 0.031373 0.019608
0.290196 0.031373 0.019608
0.305882 0.031373 0.015686
0.325490 0.031373 0.015686
0.349020 0.027451 0.011765
0.364706 0.035294 0.011765
0.380392 0.031373 0.007843
0.396078 0.031373 0.007843
0.415686 0.031373 0.003922
0.423529 0.035294 0.003922
0.443137 0.031373 0.000000
0.466667 0.027451 0.000000
0.482353 0.027451 0.000000
0.494118 0.027451 0.000000
0.509804 0.031373 0.000000
0.533333 0.031373 0.000000
0.552941 0.031373 0.000000
0.564706 0.035294 0.000000
0.596078 0.031373 0.000000
0.615686 0.031373 0.000000
0.635294 0.027451 0.000000
0.666667 0.031373 0.000000
0.686275 0.031373 0.000000
0.701961 0.035294 0.000000
0.733333 0.039216 0.000000
0.760784 0.035294 0.000000
0.780392 0.031373 0.000000
0.796078 0.035294 0.000000
0.815686 0.035294 0.000000
0.835294 0.035294 0.000000
0.862745 0.035294 0.000000
0.870588 0.035294 0.000000
0.894118 0.031373 0.000000
0.913725 0.031373 0.000000
0.933333 0.035294 0.000000
0.945098 0.039216 0.000000
0.960784 0.035294 0.000000
0.980392 0.035294 0.000000
0.996078 0.035294 0.000000
1.000000 0.039216 0.000000
1.000000 0.031373 0.000000
1.000000 0.031373 0.000000
1.000000 0.031373 0.000000
0.000000 0.043137 0.027451
0.000000 0.047059 0.027451
0.000000 0.047059 0.027451
0.000000 0.050980 0.027451
0.000000 0.050980 0.027451
0.000000 0.047059 0.027451
0.015686 0.047059 0.027451
0.035294 0.047059 0.027451
0.050980 0.047059 0.027451
0.066667 0.043137 0.027451
0.078431 0.047059 0.027451
0.094118 0.047059 0.027451
0.117647 0.043137 0.027451
0.137255 0.043137 0.027451
0.156863 0.054902 0.027451
0.172549 0.050980 0.027451
0.192157 0.050980 0.027451
0.207843 0.050980 0.027451
0.219608 0.054902 0.027451
0.243137 0.047059 0.023529
0.258824 0.047059 0.023529
0.274510 0.047059 0.019608
0.294118 0.047059 0.019608
0.309804 0.047059 0.015686
0.325490 0.054902 0.015686
0.341176 0.050980 0.011765
0.364706 0.047059 0.011765
0.384314 0.047059 0.007843
0.392157 0.050980 0.007843
0.411765 0.047059 0.003922
0.427451 0.047059 0.003922
0.443137 0.047059 0.000000
0.454902 0.047059 0.000000
0.478431 0.047059 0.000000
0.501961 0.050980 0.000000
0.517647 0.047059 0.000000
0.529412 0.050980 0.000000
0.545098 0.050980 0.000000
0.572549 0.050980 0.000000
0.592157 0.047059 0.000000
0.611765 0.047059 0.000000
0.635294 0.047059 0.000000
0.662745 0.050980 0.000000
0.690196 0.054902 0.000000
0.709804 0.054902 0.000000
0.733333 0.050980 0.000000
0.745098 0.054902 0.000000
0.776471 0.050980 0.000000
0.796078 0.050980 0.000000
0.823529 0.050980 0.000000
0.835294 0.050980 0.000000
0.858824 0.050980 0.000000
0.874510 0.047059 0.000000
0.898039 0.054902 0.000000
0.913725 0.050980 0.000000
0.929412 0.050980 0.000000
0.949020 0.050980 0.000000
0.964706 0.050980 0.000000
0.976471 0.054902 0.000000
0.992157 0.050980 0.000000
1.000000 0.050980 0.000000
1.000000 0.047059 0.000000
1.000000 0.047059 0.000000
1.000000 0.054902 0.000000
0.000000 0.062745 0.027451
0.000000 0.066667 0.027451
0.000000 0.062745 0.027451
0.000000 0.062745 0.027451
0.000000 0.066667 0.027451
0.000000 0.066667 0.027451
0.019608 0.062745 0.027451
0.035294 0.058824 0.027451
0.047059 0.062745 0.027451
0.062745 0.062745 0.027451
0.082353 0.058824 0.027451
0.098039 0.062745 0.027451
0.113725 0.066667 0.027451
0.137255 0.062745 0.027451
0.160784 0.066667 0.027451
0.176471 0.066667 0.027451
0.188235 0.070588 0.027451
0.203922 0.066667 0.027451
0.219608 0.066667 0.027451
0.239216 0.066667 0.023529
0.254902 0.066667 0.023529
0.278431 0.062745 0.019608
0.294118 0.070588 0.019608
0.309804 0.066667 0.015686
0.329412 0.066667 0.015686
0.345098 0.066667 0.011765
0.356863 0.066667 0.011765
0.380392 0.062745 0.007843
0.396078 0.062745 0.007843
0.411765 0.062745 0.003922
0.423529 0.062745 0.003922
0.443137 0.066667 0.000000
0.462745 0.066667 0.000000
0.478431 0.066667 0.000000
0.498039 0.066667 0.000000
0.513725 0.066667 0.000000
0.533333 0.066667 0.000000
0.552941 0.062745 0.000000
0.564706 0.066667 0.000000
0.584314 0.066667 0.000000
0.607843 0.062745 0.000000
0.650980 0.070588 0.000000
0.670588 0.070588 0.000000
0.690196 0.066667 0.000000
0.705882 0.070588 0.000000
0.725490 0.070588 0.000000
0.752941 0.070588 0.000000
0.772549 0.070588 0.000000
0.796078 0.066667 0.000000
0.815686 0.066667 0.000000
0.835294 0.066667 0.000000
0.866667 0.070588 0.000000
0.878431 0.070588 0.000000
0.894118 0.070588 0.000000
0.909804 0.070588 0.000000
0.933333 0.066667 0.000000
0.945098 0.070588 0.000000
0.960784 0.066667 0.000000
0.980392 0.066667 0.000000
0.996078 0.066667 0.000000
1.000000 0.066667 0.000000
1.000000 0.074510 0.000000
1.000000 0.066667 0.000000
1.000000 0.066667 0.000000
0.000000 0.078431 0.027451
0.000000 0.078431 0.027451
0.000000 0.078431 0.027451
0.000000 0.082353 0.027451
0.000000 0.082353 0.027451
0.000000 0.078431 0.027451
0.023529 0.074510 0.027451
0.031373 0.078431 0.027451
0.050980 0.074510 0.027451
0.066667 0.078431 0.027451
0.090196 0.078431 0.027451
0.098039 0.082353 0.027451
0.117647 0.082353 0.027451
0.141176 0.078431 0.027451
0.156863 0.074510 0.027451
0.168627 0.078431 0.027451
0.184314 0.078431 0.027451
0.203922 0.078431 0.027451
0.219608 0.078431 0.027451
0.235294 0.074510 0.023529
0.247059 0.078431 0.023529
0.274510 0.078431 0.019608
0.298039 0.082353 0.019608
0.313725 0.082353 0.015686
0.329412 0.082353 0.015686
0.341176 0.082353 0.011765
0.360784 0.082353 0.011765
0.380392 0.078431 0.007843
0.400000 0.078431 0.007843
0.415686 0.078431 0.003922
0.431373 0.082353 0.003922
0.447059 0.082353 0.000000
0.466667 0.082353 0.000000
0.482353 0.082353 0.000000
0.494118 0.086275 0.000000
0.517647 0.078431 0.000000
0.533333 0.078431 0.000000
0.556863 0.078431 0.000000
0.564706 0.082353 0.000000
0.592157 0.078431 0.000000
0.615686 0.082353 0.000000
0.647059 0.078431 0.000000
0.670588 0.078431 0.000000
0.690196 0.078431 0.000000
0.705882 0.082353 0.000000
0.725490 0.078431 0.000000
0.745098 0.078431 0.000000
0.772549 0.078431 0.000000
0.788235 0.078431 0.000000
0.811765 0.074510 0.000000
0.847059 0.082353 0.000000
0.870588 0.086275 0.000000
0.878431 0.086275 0.000000
0.898039 0.086275 0.000000
0.913725 0.086275 0.000000
0.937255 0.082353 0.000000
0.949020 0.082353 0.000000
0.964706 0.082353 0.000000
0.980392 0.082353 0.000000
1.000000 0.086275 0.000000
1.000000 0.086275 0.000000
1.000000 0.086275 0.000000
1.000000 0.086275 0.000000
1.000000 0.082353 0.000000
0.000000 0.094118 0.027451
0.000000 0.098039 0.027451
0.000000 0.098039 0.027451
0.000000 0.094118 0.027451
0.000000 0.094118 0.027451
0.000000 0.094118 0.027451
0.011765 0.094118 0.027451
0.035294 0.090196 0.027451
0.058824 0.098039 0.027451
0.066667 0.098039 0.027451
0.086275 0.098039 0.027451
0.101961 0.098039 0.027451
0.121569 0.094118 0.027451
0.129412 0.098039 0.027451
0.152941 0.094118 0.027451
0.172549 0.094118 0.027451
0.188235 0.094118 0.027451
0.203922 0.090196 0.027451
0.215686 0.094118 0.027451
0.239216 0.098039 0.023529
0.254902 0.098039 0.023529
0.278431 0.094118 0.019608
0.298039 0.098039 0.019608
0.309804 0.098039 0.015686
0.329412 0.098039 0.015686
0.345098 0.098039 0.011765
0.360784 0.098039 0.011765
0.380392 0.098039 0.007843
0.400000 0.101961 0.007843
0.415686 0.098039 0.003922
0.435294 0.098039 0.003922
0.450980 0.098039 0.000000
0.462745 0.098039 0.000000
0.478431 0.098039 0.000000
0.498039 0.098039 0.000000
0.521569 0.094118 0.000000
0.529412 0.098039 0.000000
0.552941 0.094118 0.000000
0.576471 0.098039 0.000000
0.600000 0.098039 0.000000
0.611765 0.101961 0.000000
0.635294 0.098039 0.000000
0.666667 0.098039 0.000000
0.686275 0.094118 0.000000
0.705882 0.094118 0.000000
0.733333 0.094118 0.000000
0.745098 0.094118 0.000000
0.768627 0.094118 0.000000
0.792157 0.098039 0.000000
0.831373 0.101961 0.000000
0.843137 0.101961 0.000000
0.866667 0.101961 0.000000
0.882353 0.101961 0.000000
0.898039 0.098039 0.000000
0.909804 0.101961 0.000000
0.925490 0.101961 0.000000
0.949020 0.098039 0.000000
0.972549 0.098039 0.000000
0.984314 0.101961 0.000000
1.000000 0.101961 0.000000
1.000000 0.101961 0.000000
1.000000 0.101961 0.000000
1.000000 0.101961 0.000000
1.000000 0.101961 0.000000
0.000000 0.101961 0.027451
0.000000 0.105882 0.027451
0.000000 0.105882 0.027451
0.000000 0.105882 0.027451
0.000000 0.101961 0.027451
0.000000 0.105882 0.027451
0.011765 0.105882 0.027451
0.031373 0.109804 0.027451
0.054902 0.105882 0.027451
0.066667 0.109804 0.027451
0.082353 0.105882 0.027451
0.101961 0.105882 0.027451
0.121569 0.109804 0.027451
0.133333 0.113725 0.027451
0.149020 0.113725 0.027451
0.172549 0.105882 0.027451
0.192157 0.105882 0.027451
0.207843 0.113725 0.027451
0.223529 0.113725 0.027451
0.239216 0.109804 0.023529
0.258824 0.109804 0.023529
0.274510 0.109804 0.019608
0.298039 0.105882 0.019608
0.309804 0.105882 0.015686
0.325490 0.105882 0.015686
0.341176 0.105882 0.011765
0.360784 0.105882 0.011765
0.376471 0.113725 0.007843
0.392157 0.113725 0.007843
0.415686 0.109804 0.003922
0.431373 0.105882 0.003922
0.443137 0.109804 0.000000
0.462745 0.109804 0.000000
0.478431 0.109804 0.000000
0.494118 0.109804 0.000000
0.505882 0.109804 0.000000
0.529412 0.105882 0.000000
0.552941 0.109804 0.000000
0.576471 0.109804 0.000000
0.596078 0.109804 0.000000
0.615686 0.113725 0.000000
0.635294 0.113725 0.000000
0.662745 0.113725 0.000000
0.690196 0.109804 0.000000
0.709804 0.109804 0.000000
0.725490 0.109804 0.000000
0.752941 0.113725 0.000000
0.776471 0.113725 0.000000
0.796078 0.113725 0.000000
0.815686 0.113725 0.000000
0.843137 0.109804 0.000000
0.862745 0.109804 0.000000
0.882353 0.109804 0.000000
0.898039 0.109804 0.000000
0.909804 0.109804 0.000000
0.925490 0.109804 0.000000
0.949020 0.113725 0.000000
0.972549 0.109804 0.000000
0.980392 0.113725 0.000000
1.000000 0.113725 0.000000
1.000000 0.109804 0.000000
1.000000 0.109804 0.000000
1.000000 0.109804 0.000000
1.000000 0.109804 0.000000
0.000000 0.121569 0.027451
0.000000 0.121569 0.027451
0.000000 0.117647 0.027451
0.000000 0.121569 0.027451
0.000000 0.121569 0.027451
0.000000 0.125490 0.027451
0.019608 0.125490 0.027451
0.027451 0.129412 0.027451
0.047059 0.125490 0.027451
0.070588 0.121569 0.027451
0.086275 0.121569 0.027451
0.098039 0.121569 0.027451
0.117647 0.125490 0.027451
0.137255 0.125490 0.027451
0.152941 0.125490 0.027451
0.168627 0.133333 0.027451
0.192157 0.129412 0.027451
0.207843 0.125490 0.027451
0.227451 0.125490 0.027451
0.235294 0.129412 0.023529
0.254902 0.125490 0.023529
0.270588 0.125490 0.019608
0.290196 0.125490 0.019608
0.309804 0.121569 0.015686
0.329412 0.121569 0.015686
0.345098 0.129412 0.011765
0.360784 0.129412 0.011765
0.376471 0.129412 0.007843
0.396078 0.125490 0.007843
0.407843 0.129412 0.003922
0.431373 0.125490 0.003922
0.447059 0.125490 0.000000
0.462745 0.125490 0.000000
0.474510 0.125490 0.000000
0.490196 0.125490 0.000000
0.513725 0.129412 0.000000
0.529412 0.125490 0.000000
0.556863 0.121569 0.000000
0.572549 0.125490 0.000000
0.596078 0.129412 0.000000
0.619608 0.129412 0.000000
0.643137 0.129412 0.000000
0.666667 0.125490 0.000000
0.678431 0.129412 0.000000
0.709804 0.129412 0.000000
0.737255 0.129412 0.000000
0.756863 0.129412 0.000000
0.780392 0.129412 0.000000
0.792157 0.129412 0.000000
0.815686 0.129412 0.000000
0.835294 0.129412 0.000000
0.866667 0.125490 0.000000
0.878431 0.129412 0.000000
