welcome-home/luts/olsm_warm.cube
TITLE "OLSM Warm v4 (session grade: colortemp4600 + eq + colorbalance)"
LUT_3D_SIZE 8
0.000000 0.000000 0.027451
0.066667 0.000000 0.027451
0.219608 0.000000 0.027451
0.384314 0.000000 0.007843
0.529412 0.000000 0.000000
0.725490 0.000000 0.000000
0.909804 0.000000 0.000000
1.000000 0.000000 0.000000
0.000000 0.062745 0.027451
0.062745 0.062745 0.027451
0.219608 0.066667 0.027451
0.380392 0.062745 0.007843
0.533333 0.066667 0.000000
0.725490 0.070588 0.000000
0.909804 0.070588 0.000000
1.000000 0.066667 0.000000
0.000000 0.203922 0.027451
0.070588 0.203922 0.027451
0.223529 0.207843 0.027451
0.380392 0.203922 0.007843
0.537255 0.207843 0.000000
0.733333 0.211765 0.000000
0.905882 0.203922 0.000000
1.000000 0.203922 0.000000
0.000000 0.333333 0.015686
0.066667 0.341176 0.011765
0.219608 0.341176 0.011765
0.384314 0.333333 0.007843
0.533333 0.341176 0.000000
0.733333 0.341176 0.000000
0.913725 0.341176 0.000000
1.000000 0.349020 0.000000
0.000000 0.474510 0.000000
0.074510 0.478431 0.000000
0.231373 0.474510 0.000000
0.388235 0.478431 0.000000
0.541176 0.478431 0.000000
0.737255 0.478431 0.000000
0.925490 0.482353 0.000000
1.000000 0.486275 0.000000
0.019608 0.615686 0.000000
0.094118 0.615686 0.000000
0.247059 0.623529 0.000000
0.411765 0.619608 0.000000
0.556863 0.623529 0.000000
0.741176 0.623529 0.000000
0.921569 0.623529 0.000000
1.000000 0.623529 0.000000
0.058824 0.749020 0.000000
0.133333 0.752941 0.000000
0.290196 0.752941 0.000000
0.443137 0.752941 0.000000
0.607843 0.764706 0.000000
0.760784 0.760784 0.000000
0.921569 0.752941 0.000000
1.000000 0.764706 0.000000
0.070588 0.886275 0.000000
0.145098 0.894118 0.000000
0.305882 0.890196 0.000000
0.454902 0.894118 0.000000
0.611765 0.898039 0.000000
0.764706 0.898039 0.000000
0.925490 0.894118 0.000000
1.000000 0.898039 0.000000
0.000000 0.000000 0.058824
0.070588 0.000000 0.054902
0.219608 0.000000 0.062745
0.376471 0.000000 0.039216
0.537255 0.000000 0.035294
0.733333 0.000000 0.003922
0.913725 0.000000 0.000000
1.000000 0.000000 0.000000
0.000000 0.066667 0.062745
0.070588 0.066667 0.066667
0.219608 0.062745 0.050980
0.372549 0.066667 0.039216
0.537255 0.066667 0.023529
0.741176 0.070588 0.000000
0.913725 0.070588 0.000000
1.000000 0.066667 0.000000
0.000000 0.200000 0.058824
0.066667 0.200000 0.054902
0.223529 0.207843 0.058824
0.376471 0.203922 0.043137
0.541176 0.203922 0.027451
0.741176 0.207843 0.000000
0.913725 0.207843 0.000000
1.000000 0.207843 0.000000
0.000000 0.337255 0.039216
0.066667 0.341176 0.043137
0.223529 0.345098 0.050980
0.388235 0.341176 0.039216
0.537255 0.337255 0.031373
0.752941 0.345098 0.000000
0.909804 0.345098 0.000000
1.000000 0.341176 0.000000
0.000000 0.470588 0.035294
0.074510 0.474510 0.035294
0.227451 0.478431 0.035294
0.384314 0.474510 0.035294
0.552941 0.478431 0.035294
0.749020 0.478431 0.000000
0.917647 0.478431 0.000000
1.000000 0.478431 0.000000
0.019608 0.615686 0.019608
0.105882 0.615686 0.015686
0.250980 0.619608 0.011765
0.419608 0.619608 0.011765
0.572549 0.623529 0.011765
0.752941 0.623529 0.000000
0.929412 0.619608 0.000000
1.000000 0.623529 0.000000
0.058824 0.756863 0.000000
0.145098 0.752941 0.000000
0.301961 0.760784 0.000000
0.462745 0.756863 0.000000
0.611765 0.756863 0.000000
0.768627 0.764706 0.000000
0.929412 0.756863 0.000000
1.000000 0.760784 0.000000
0.070588 0.890196 0.000000
0.141176 0.890196 0.000000
0.305882 0.898039 0.000000
0.462745 0.894118 0.000000
0.611765 0.890196 0.000000
0.772549 0.901961 0.000000
0.929412 0.898039 0.000000
1.000000 0.898039 0.000000
0.000000 0.000000 0.188235
0.070588 0.000000 0.180392
0.223529 0.000000 0.180392
0.380392 0.000000 0.160784
0.537255 0.000000 0.160784
0.733333 0.000000 0.129412
0.917647 0.000000 0.105882
1.000000 0.000000 0.105882
0.000000 0.066667 0.184314
0.070588 0.066667 0.184314
0.223529 0.066667 0.176471
0.380392 0.070588 0.164706
0.556863 0.070588 0.141176
0.745098 0.062745 0.109804
0.913725 0.070588 0.098039
1.000000 0.070588 0.101961
0.000000 0.203922 0.176471
0.066667 0.200000 0.176471
0.219608 0.200000 0.160784
0.376471 0.203922 0.156863
0.576471 0.200000 0.125490
0.760784 0.207843 0.101961
0.913725 0.207843 0.109804
1.000000 0.207843 0.105882
0.000000 0.337255 0.164706
0.066667 0.337255 0.164706
0.219608 0.341176 0.156863
0.376471 0.345098 0.160784
0.580392 0.341176 0.129412
0.768627 0.345098 0.105882
0.913725 0.345098 0.109804
1.000000 0.349020 0.101961
0.000000 0.474510 0.164706
0.078431 0.474510 0.152941
0.258824 0.482353 0.141176
0.411765 0.482353 0.137255
0.580392 0.474510 0.121569
0.768627 0.482353 0.117647
0.921569 0.482353 0.105882
1.000000 0.482353 0.113725
0.019608 0.615686 0.141176
0.113725 0.611765 0.133333
0.290196 0.615686 0.109804
0.458824 0.615686 0.109804
0.603922 0.619608 0.109804
0.764706 0.619608 0.105882
0.917647 0.627451 0.109804
1.000000 0.623529 0.117647
0.058824 0.752941 0.113725
0.149020 0.752941 0.113725
0.298039 0.756863 0.101961
0.462745 0.756863 0.113725
0.615686 0.756863 0.105882
0.772549 0.760784 0.113725
0.921569 0.760784 0.121569
1.000000 0.764706 0.109804
0.070588 0.890196 0.117647
0.149020 0.894118 0.109804
0.305882 0.898039 0.117647
0.462745 0.894118 0.109804
0.615686 0.894118 0.113725
0.772549 0.901961 0.117647
0.925490 0.901961 0.117647
1.000000 0.898039 0.113725
0.000000 0.000000 0.305882
0.074510 0.000000 0.301961
0.215686 0.000000 0.301961
0.380392 0.000000 0.286275
0.533333 0.000000 0.286275
0.733333 0.000000 0.250980
0.917647 0.000000 0.231373
1.000000 0.000000 0.239216
0.000000 0.066667 0.301961
0.074510 0.062745 0.301961
0.223529 0.066667 0.290196
0.380392 0.066667 0.290196
0.549020 0.070588 0.262745
0.749020 0.066667 0.239216
0.917647 0.070588 0.235294
1.000000 0.070588 0.231373
0.000000 0.203922 0.305882
0.074510 0.203922 0.294118
0.223529 0.203922 0.282353
0.392157 0.207843 0.274510
0.584314 0.203922 0.243137
0.764706 0.203922 0.235294
0.913725 0.207843 0.231373
1.000000 0.207843 0.231373
0.000000 0.341176 0.298039
0.070588 0.337255 0.286275
0.227451 0.337255 0.286275
0.407843 0.345098 0.254902
0.600000 0.341176 0.235294
0.764706 0.345098 0.231373
0.917647 0.345098 0.235294
1.000000 0.345098 0.243137
0.000000 0.474510 0.286275
0.082353 0.474510 0.282353
0.274510 0.482353 0.250980
0.447059 0.478431 0.243137
0.607843 0.478431 0.231373
0.772549 0.482353 0.239216
0.917647 0.482353 0.239216
1.000000 0.486275 0.235294
0.023529 0.619608 0.270588
0.117647 0.619608 0.258824
0.298039 0.619608 0.235294
0.454902 0.627451 0.239216
0.611765 0.623529 0.239216
0.764706 0.623529 0.235294
0.921569 0.627451 0.239216
1.000000 0.627451 0.243137
0.058824 0.752941 0.239216
0.149020 0.752941 0.235294
0.294118 0.756863 0.227451
0.458824 0.756863 0.239216
0.607843 0.756863 0.243137
0.772549 0.760784 0.239216
0.925490 0.760784 0.247059
1.000000 0.768627 0.239216
0.070588 0.890196 0.243137
0.149020 0.890196 0.231373
0.301961 0.890196 0.239216
0.458824 0.898039 0.243137
0.615686 0.894118 0.239216
0.772549 0.898039 0.243137
0.925490 0.898039 0.239216
1.000000 0.894118 0.247059
0.000000 0.000000 0.411765
0.070588 0.000000 0.411765
0.223529 0.000000 0.411765
0.380392 0.000000 0.415686
0.533333 0.000000 0.407843
0.725490 0.000000 0.376471
0.913725 0.000000 0.352941
1.000000 0.000000 0.352941
0.000000 0.058824 0.411765
0.066667 0.066667 0.403922
0.227451 0.062745 0.403922
0.376471 0.062745 0.403922
0.549020 0.070588 0.388235
0.756863 0.066667 0.364706
0.913725 0.066667 0.345098
1.000000 0.070588 0.356863
0.000000 0.203922 0.411765
0.066667 0.203922 0.407843
0.247059 0.203922 0.392157
0.403922 0.207843 0.392157
0.596078 0.207843 0.368627
0.764706 0.203922 0.352941
0.921569 0.207843 0.360784
1.000000 0.211765 0.360784
0.000000 0.341176 0.415686
0.070588 0.345098 0.411765
0.247059 0.337255 0.384314
0.439216 0.341176 0.360784
0.603922 0.341176 0.360784
0.760784 0.341176 0.349020
0.917647 0.345098 0.360784
1.000000 0.345098 0.356863
0.000000 0.474510 0.411765
0.074510 0.478431 0.403922
0.266667 0.474510 0.372549
0.458824 0.474510 0.364706
0.603922 0.482353 0.352941
0.772549 0.478431 0.364706
0.917647 0.486275 0.356863
1.000000 0.482353 0.360784
0.023529 0.623529 0.392157
0.121569 0.619608 0.384314
0.298039 0.619608 0.352941
0.454902 0.623529 0.364706
0.607843 0.623529 0.360784
0.768627 0.623529 0.360784
0.921569 0.627451 0.364706
1.000000 0.627451 0.360784
0.058824 0.756863 0.368627
0.152941 0.756863 0.356863
0.301961 0.760784 0.356863
0.462745 0.760784 0.368627
0.607843 0.764706 0.364706
0.772549 0.756863 0.364706
0.925490 0.768627 0.364706
1.000000 0.768627 0.364706
0.070588 0.890196 0.364706
0.149020 0.890196 0.356863
0.301961 0.890196 0.364706
0.458824 0.898039 0.356863
0.619608 0.894118 0.364706
0.780392 0.901961 0.372549
0.929412 0.901961 0.368627
1.000000 0.905882 0.376471
0.000000 0.000000 0.529412
0.066667 0.000000 0.517647
0.219608 0.000000 0.529412
0.384314 0.000000 0.537255
0.529412 0.000000 0.525490
0.733333 0.000000 0.505882
0.913725 0.000000 0.470588
1.000000 0.000000 0.478431
0.000000 0.066667 0.525490
0.090196 0.070588 0.517647
0.247059 0.066667 0.521569
0.392157 0.062745 0.513725
0.552941 0.066667 0.513725
0.745098 0.066667 0.478431
0.917647 0.066667 0.470588
1.000000 0.074510 0.482353
0.000000 0.200000 0.521569
0.086275 0.203922 0.517647
0.278431 0.203922 0.482353
0.431373 0.200000 0.486275
0.596078 0.203922 0.494118
0.760784 0.207843 0.474510
0.917647 0.203922 0.482353
1.000000 0.211765 0.478431
0.000000 0.341176 0.537255
0.086275 0.345098 0.517647
0.290196 0.341176 0.486275
0.454902 0.345098 0.482353
0.607843 0.345098 0.482353
0.760784 0.345098 0.478431
0.921569 0.349020 0.482353
1.000000 0.349020 0.486275
0.000000 0.478431 0.533333
0.082353 0.478431 0.513725
0.282353 0.474510 0.486275
0.450980 0.478431 0.482353
0.603922 0.478431 0.478431
0.768627 0.474510 0.478431
0.925490 0.486275 0.486275
1.000000 0.486275 0.490196
0.019608 0.615686 0.517647
0.113725 0.619608 0.509804
0.301961 0.619608 0.478431
0.454902 0.619608 0.482353
0.607843 0.623529 0.478431
0.768627 0.619608 0.486275
0.921569 0.619608 0.490196
1.000000 0.627451 0.486275
0.058824 0.752941 0.486275
0.145098 0.760784 0.482353
0.301961 0.756863 0.482353
0.458824 0.756863 0.478431
0.611765 0.764706 0.490196
0.776471 0.756863 0.486275
0.921569 0.760784 0.486275
1.000000 0.764706 0.490196
0.070588 0.894118 0.486275
0.156863 0.894118 0.486275
0.301961 0.894118 0.490196
0.466667 0.898039 0.486275
0.615686 0.898039 0.494118
0.776471 0.898039 0.482353
0.933333 0.901961 0.494118
1.000000 0.901961 0.498039
0.031373 0.000000 0.627451
0.090196 0.000000 0.619608
0.250980 0.000000 0.631373
0.407843 0.000000 0.627451
0.560784 0.000000 0.627451
0.737255 0.000000 0.619608
0.909804 0.000000 0.596078
1.000000 0.000000 0.603922
0.031373 0.062745 0.623529
0.121569 0.062745 0.615686
0.270588 0.074510 0.611765
0.435294 0.066667 0.615686
0.588235 0.066667 0.615686
0.756863 0.070588 0.603922
0.917647 0.070588 0.607843
1.000000 0.074510 0.596078
0.031373 0.203922 0.627451
0.125490 0.207843 0.611765
0.294118 0.203922 0.592157
0.450980 0.200000 0.600000
0.607843 0.203922 0.600000
0.760784 0.207843 0.600000
0.917647 0.203922 0.600000
1.000000 0.207843 0.600000
0.031373 0.337255 0.631373
0.121569 0.341176 0.611765
0.294118 0.341176 0.603922
0.450980 0.341176 0.596078
0.607843 0.345098 0.603922
0.760784 0.345098 0.596078
0.917647 0.341176 0.600000
1.000000 0.345098 0.611765
0.031373 0.478431 0.631373
0.121569 0.482353 0.615686
0.294118 0.482353 0.607843
0.458824 0.482353 0.611765
0.611765 0.482353 0.607843
0.760784 0.482353 0.607843
0.925490 0.486275 0.607843
1.000000 0.486275 0.615686
0.031373 0.619608 0.631373
0.117647 0.615686 0.615686
0.305882 0.623529 0.607843
0.458824 0.623529 0.603922
0.611765 0.623529 0.603922
0.768627 0.627451 0.615686
0.925490 0.627451 0.603922
1.000000 0.627451 0.611765
0.058824 0.752941 0.603922
0.145098 0.760784 0.607843
0.301961 0.756863 0.611765
0.454902 0.756863 0.603922
0.611765 0.760784 0.615686
0.768627 0.760784 0.603922
0.921569 0.760784 0.611765
1.000000 0.768627 0.619608
0.070588 0.890196 0.607843
0.152941 0.894118 0.611765
0.301961 0.894118 0.607843
0.462745 0.894118 0.607843
0.611765 0.901961 0.607843
0.776471 0.898039 0.607843
0.929412 0.894118 0.611765
1.000000 0.901961 0.615686
0.062745 0.000000 0.721569
0.129412 0.000000 0.721569
0.278431 0.000000 0.713725
0.439216 0.000000 0.725490
0.596078 0.000000 0.725490
0.752941 0.000000 0.725490
0.909804 0.000000 0.721569
1.000000 0.000000 0.717647
0.062745 0.062745 0.721569
0.141176 0.062745 0.725490
0.290196 0.070588 0.717647
0.450980 0.066667 0.725490
0.603922 0.070588 0.713725
0.764706 0.070588 0.725490
0.917647 0.070588 0.717647
1.000000 0.070588 0.721569
0.066667 0.200000 0.725490
0.141176 0.203922 0.717647
0.298039 0.203922 0.729412
0.458824 0.203922 0.721569
0.607843 0.203922 0.725490
0.764706 0.207843 0.729412
0.917647 0.211765 0.725490
1.000000 0.207843 0.725490
0.062745 0.337255 0.721569
0.145098 0.341176 0.721569
0.294118 0.341176 0.729412
0.454902 0.337255 0.717647
0.611765 0.341176 0.729412
0.760784 0.345098 0.721569
0.913725 0.345098 0.725490
1.000000 0.341176 0.733333
0.066667 0.474510 0.725490
0.145098 0.478431 0.725490
0.298039 0.482353 0.725490
0.454902 0.478431 0.729412
0.611765 0.482353 0.725490
0.764706 0.482353 0.729412
0.913725 0.482353 0.729412
1.000000 0.486275 0.733333
0.066667 0.619608 0.725490
0.145098 0.619608 0.729412
0.301961 0.623529 0.729412
0.458824 0.623529 0.729412
0.611765 0.623529 0.729412
0.768627 0.627451 0.729412
0.921569 0.627451 0.737255
1.000000 0.623529 0.733333
0.066667 0.756863 0.725490
0.145098 0.756863 0.733333
0.301961 0.764706 0.725490
0.458824 0.760784 0.733333
0.611765 0.760784 0.737255
0.768627 0.768627 0.733333
0.929412 0.760784 0.741176
1.000000 0.764706 0.729412
0.070588 0.890196 0.733333
0.152941 0.894118 0.725490
0.298039 0.898039 0.733333
0.462745 0.890196 0.729412
0.619608 0.905882 0.737255
0.776471 0.901961 0.737255
0.929412 0.901961 0.733333
1.000000 0.905882 0.745098
